X: 15014
T: George Brabazon First Air
R: jig
M: 6/8
K: Gmajor
G2g gdg|gdg fed|B2g gdc|Bc/d/B cAF|
G2g gdg|gdg fed|B2g gdc|Bc/d/B cAF||
B3 cBc|d2g gab|B3 c3|Bc/d/B cAF|
BAG GAG|G2g gdc|BAG GDG|Bc/d/B cAF||

